X:1
T:Title
%%score ( 1 2 3 ) { 4 | 5 }
L:1/8
Q:1/4=90
M:3/4
K:Bb
V:1 treble nm="Grand Piano, Soprano"
V:2 treble 
V:3 treble 
V:4 bass nm="Choir Pad, Some Other Day, A. Russell"
V:5 bass 
V:1
 z2 z B3 | z [EB] z2 z2 | z2 z [CF]3 | z E z2 z2 | G^F G c3 | G[GB] [^FA] [=F_A]3 | _AG A d3 | %7
 _Ac =B _B3 | BA B e3 | Bd _d [E_Ac]3- | [EAc] [E_Ac]2 B3 | e[B,D]- [B,DF] [G,B,E]3 | %12
 [GB][^FA] [GB]e [Beg][egb] | z6 | z2 z2 .[Bf]2 | [_AB][Ac] [Ac][GB] [Be][Beg] | %16
 [GB][^FA] [GB][GB] [Be][Beg] | [GB][^FA] [GB][_Ac] [ce][ce_a]- | [cea] [_Ac]2 [GB]3 | %19
 [Ge][EG] .[DF]2 [_Ace][GBe]- | [GBe]6 |] %21
V:2
 GF E [EG]3- | [EGc]B,- [B,E] [B,EG]3- | [B,EG] [B,_DG]2 _A,3- | [A,C]_A,- [A,D] [G,B,E]3 | %4
 z2 z =E3- | E z z2 z2 | z2 z [DF]3- | [DF] z z2 z2 | z2 z [EG]3- | [EG] .[EB]3 z2 | z2 z [EG]3- | %11
 [EG]G z2 z2 | z2 z G3 | [EG][GB] .[^FA]2 [Bdf][df_a]- | [dfa] [Ec]2 d d-[_Acd] | z2 z2 G2 | %16
 z2 z2 G2 | z2 z2 _A2- | A z z2 z2 | z2 z E3- | E6 |] %21
V:3
 x6 | x6 | x6 | x6 | x6 | x6 | x6 | x6 | x6 | x6 | x6 | x6 | x6 | z2 z [=F_A]3- | [FA] z z F3 | %15
 x6 | x6 | x6 | x6 | x6 | x6 |] %21
V:4
 z2 z E,, B,,G,- | G, G,2 E,, B,,G,- | G,3 _A,, C,_A,- | A, _A,2 E,, B,,E, | z2 z C,, G,,G,- | %5
 G, C2 F,, C,_A,- | A,2 z B,, D,B,- | B, _A,2 E,, B,,E, | z2 z E,, B,,B,- | B, G,2 _A,, E,C- | %10
 C _A,2 B,, E,B,- | B, _A,2 E,, B,,E, | DD D B,3 | B,[K:bass]B, C B,3- | B, B,2 B,3 | ED D E3 | %16
 ED D E3 | EE E E3- | E E2 E3 | B,B, _A, G,3- | G,6 |] %21
V:5
 z2 z2 z E,- | E, .E,3 z E,- | E,4 z F,- | F, .B,,3 z2 | z2 z2 z C,- | C, .C,3 z F,- | %6
 F,2 z2 z F,- | F, .B,,3 z2 | z2 z2 z E,- | E, .G,,3 z _A,- | A, ._A,,3 z G,- | G, .B,,3 z2 | %12
 E,E, E, E,3 | E,B,, C, D,3- | D, B,,2 B,,3 | B,,B,, B,, E,3 | B,,B,, B,, E,3 | E,E, E, _A,3- | %18
 A, _A,,2 B,,3 | B,,B,, B,, E,3- | E,6 |] %21

